X: 18759
T: Ievan Polkka
R: polka
M: 2/4
K: Bminor
|:B>A Bc|dB Bd|cA Ac|d/c/B/A/ BF|
B>A Bc|dB Bd|e>f ed|1 cB BF:|2 cB Be||
|:fd df|ec cd|e>f ed|cB Be|
~f2 af|ec cd|e>f ed|1 cB Be:|2 cB BF||

